X: 78
T: Salve sancta parens
C: Gaspar van Weerbeke
%%abc-version 2.0
%%abcx-abcm2ps-target-version 5.9.1 (29 Sep 2008)
%%abc-creator hum2abc beta
%%abcx-conversion-date 2022/03/06 13:05:59
%%abc-copyright Copyright 2008, Pavanello, Agnese
%%abc-edited-by Mair-Gruber, Roland
%%humdrum-veritas 381639959
%%humdrum-veritas-data 1303956971
%%linebreak <none>
%%barnumbers 0
L: 1/4
M: 3/2
N: Derived from Gas0404-Salve_sancta_parens.krn
%%staves [1 2 3 4]
V: 1 clef=treble
V: 2 clef=treble-8
V: 3 clef=treble-8
V: 4 clef=bass
K: F
[V:1] G4A2 | 
[V:2] d2e2f3/e/ | 
[V:3] G2G2F2 | 
[V:4] G,2E,2D,2 | 
[V:1] BA/G/F2G3/F/ | 
[V:2] dc/B/Add3/c/ | 
[V:3] G2A2B3/A/ | 
[V:4] zG,,D,2G,,2 | 
[V:1] _ED2G2^F | 
[V:2] BAB>cd2 | 
[V:3] GFG2A2 | 
[V:4] zD,B,,G,,D,2 | 
[V:1] G2A2B3/A/ | 
[V:2] e2f2d2 | 
[V:3] G2F2G2 | 
[V:4] G,,2z2G,2 | 
[V:1] GF2B2A | 
[V:2] z2f3f | 
[V:3] B2>d2c2 | 
[V:4] _E,D,B,,2F,2 | 
[V:1] B2d2dd | 
[V:2] d2zg3/f//e//d- | 
[V:3] B2B2BB | 
[V:4] B,,2G,,2G,,G,, | 
[V:1] d2c2BG | 
[V:2] def2d2 | 
[V:3] B2A2zB | 
[V:4] G,2F,2G,2 | 
[V:1] AB>AG2^F | 
[V:2] f>ed4 | 
[V:3] cdGBA2 | 
[V:4] F,D,G,2D,2 | 
[V:1] G2G2B2 | 
[V:2] B>cd2G2 | 
[V:3] G2zB2d- | 
[V:4] G,,2G,3D, | 
[V:1] A2BGAc | 
[V:2] z2d2f2 | 
[V:3] dcdBcA | 
[V:4] F,A,G,2F,2 | 
[V:1] BA/GF/F2B | 
[V:2] _edcf2=e | 
[V:3] GBAFG2 | 
[V:4] G,>E,F,D,G,,2 | 
[V:1] AG>FF2E | 
[V:2] fczc3 | 
[V:3] FEFAG2 | 
[V:4] zC,D,F,C,2 | 
[V:1] F2A2B2 | 
[V:2] Ad>cdBG- | 
[V:3] F4G2 | 
[V:4] D,4G,,2 | 
[V:1] Gd2cBG | 
[V:2] GBc2d2 | 
[V:3] B2A2B2 | 
[V:4] z2z2G,2 | 
[V:1] AcBG2^F | 
[V:2] zABcd2- | 
[V:3] c2dGA2 | 
[V:4] F,>E,D,E,D,2 | 
[V:1] G4A2 | 
[V:2] d_edg2^f | 
[V:3] G4z2 | 
[V:4] G,,4D,2 | 
[V:1] B2c>BG2 | 
[V:2] g2e2d2 | 
[V:3] G2A2B2 | 
[V:4] G,,2z2G,2 | 
[V:1] A2B>AF2 | 
[V:2] z2d2dd | 
[V:3] c>BG2A2 | 
[V:4] F,2G,>F,D,2 | 
[V:1] G2A2B2 | 
[V:2] dc/B/A2G2 | 
[V:3] B>AF2G3/F/ | 
[V:4] G,,2D,2G,,2 | 
[V:1] AFA>G F/E/D | 
[V:2] z6 | 
[V:3] D2zd>cB/A/ | 
[V:4] zD,D,>E,F,G, | 
[V:1] EFGAGc | 
[V:2] cdef_eg- | 
[V:3] GABc_e2 | 
[V:4] E,D,G,F,C,2 | 
[V:1] BA>GG>^FF/E/ | 
[V:2] gf>_ed3 | 
[V:3] d2cBA2 | 
[V:4] G,D,F,G,D,2 | 
[V:1] G6 |]  
[V:2] B2d4 |]  
[V:3] G6 |]  
[V:4] G,,6 |]  


